X:1
T:Title
%%score { ( 1 3 ) | ( 2 4 ) }
L:1/8
Q:1/4=81
M:6/8
K:F
V:1 treble nm="Grand Piano"
V:3 treble 
V:2 bass 
V:4 bass 
V:1
 A>AA A<BA | [FA]<[EG][EG] [EG]3 | [Ec]>[Ec][Ec] [Ec][Ed][Ec] | [Ec][EG][E_A] =A3 | A>AA A<BA | %5
w: B.~D.~Ackley * * * * *|||||
 [FA]<[EG][EG] [EG]3 | =BAG B<AG | c3 z3 | c>=Bc d<cF | A3 A3 | c>=Bc d<cF | z3 [EG]3 | CAA ABc | %13
w: ||||||||
 [Dc]<[DB][DF] [Fd]3 | [Fc]>[F=B][Fc] [Fd]<[Fc][FA] | [EG]3 [CF]3 |] %16
w: |||
V:2
 [F,CF]>[F,CF][F,CF] [F,CF]<[F,DF][F,CF] | [C,C]<[C,C][C,C] [C,C]3 | %2
 [C,G,]>[C,G,][C,G,] [C,G,][C,G,][C,G,] | [C,G,][C,C][C,C] [F,CF]3 | %4
 [F,CF]>[F,CF][F,CF] [F,CF]<[F,DF][F,CF] | [C,C]<[C,C][C,C] [C,C]3 | %6
 [G,DF][G,CF][G,=B,F] [G,DF]<[G,CF][G,B,F] | z2 A, [C,B,]3 | %8
 [F,A,F]>[F,_A,F][F,=A,F] [F,B,F]<[F,A,F][F,A,] | [F,CF]3 [F,CF]3 | %10
 [F,A,F]>[F,_A,F][F,=A,F] [F,B,F]<[F,A,F][F,A,] | [C,C]3 .[C,C]3 | %12
 [F,A,][F,CF][F,CF] [F,CF][F,G,E][F,A,_E] | [B,,B,]<[B,,B,][B,,B,] [B,,B,]3 | %14
 [C,A,]>[C,_A,][C,=A,] [C,B,]<[C,A,][C,C] | [C,B,]3 [F,A,]3 |] %16
V:3
 x6 | x6 | x6 | x6 | x6 | x6 | x6 | [CE]2 F [Gc]3 | x6 | x6 | x6 | [FA]3 z2 B, | x6 | x6 | x6 | %15
 x6 |] %16
V:4
 x6 | x6 | x6 | x6 | x6 | x6 | x6 | C,3 z3 | x6 | x6 | x6 | x6 | x6 | x6 | x6 | x6 |] %16

